assets/picture.svg

<svg height="360" viewBox="0 0 640 360" width="640" xmlns="http://www.w3.org/2000/svg"><g fill="none" fill-rule="evenodd"><path d="m0 0h640v360h-640z" fill="#208dec"/><path d="m268.333048 192.133333v-24.266666c0-1.493334 1.213185-2.706667 2.706336-2.706667 1.49315 0 2.706335 1.213333 2.706335 2.706667v24.266666c0 1.493334-1.213185 2.706667-2.706335 2.706667-1.399829 0-2.706336-1.213333-2.706336-2.706667zm30.982877 1.026667-11.758562-18.76v17.733333c0 1.493334-1.213185 2.706667-2.706336 2.706667-1.49315 0-2.706335-1.213333-2.706335-2.706667v-23.52c0-1.96 1.586472-3.64 3.639555-3.64h.186643c1.213185 0 2.42637.653334 3.079624 1.68l11.665239 18.48v-17.453333c0-1.493333 1.213185-2.706667 2.706336-2.706667s2.706336 1.213334 2.706336 2.706667v23.52c0 1.96-1.586473 3.64-3.639555 3.64-1.306507 0-2.519692-.56-3.172945-1.68zm25.663527-22.96v22.213333c0 1.4-1.119863 2.52-2.519692 2.52h-.373287c-1.399829 0-2.519692-1.12-2.519692-2.52v-22.213333h-6.252569c-1.399828 0-2.519691-1.12-2.519691-2.52s1.119863-2.52 2.519691-2.52h18.01113c1.399829 0 2.519692 1.12 2.519692 2.52s-1.119863 2.52-2.519692 2.52zm13.15839 22.213333v-24.92c0-1.306666 1.119863-2.426666 2.42637-2.426666h16.331336c1.306507 0 2.42637 1.12 2.42637 2.426666 0 1.306667-1.119863 2.426667-2.42637 2.426667h-13.345034v6.906667h11.478596c1.306506 0 2.426369 1.12 2.426369 2.426666 0 1.306667-1.119863 2.426667-2.426369 2.426667h-11.478596v8.12h13.345034c1.306507 0 2.42637 1.12 2.42637 2.426667 0 1.306666-1.119863 2.426666-2.42637 2.426666h-16.331336c-1.306507.186667-2.42637-.84-2.42637-2.24zm44.047946.84-4.292809-9.613333h-6.625856v8.586667c0 1.493333-1.213185 2.706666-2.706335 2.706666h-.093322c-1.493151 0-2.706336-1.213333-2.706336-2.706666v-24.36c0-1.493334 1.213185-2.706667 2.706336-2.706667h9.892123c7.092466 0 10.358733 4.48 10.358733 9.24 0 4.013333-2.146404 7.093333-5.412671 8.306667l3.732876 8.4c.746576 1.773333-.466609 3.733333-2.426369 3.733333-1.026542 0-2.053083-.56-2.42637-1.586667zm-3.732877-23.426666h-7.092466v8.866666h7.185788c3.079623 0 4.85274-1.586666 4.85274-4.386666-.093322-2.333334-1.866439-4.48-4.946062-4.48zm36.02226 22.026666c-2.239726 2.24-5.319349 3.546667-8.492294 3.546667s-6.159247-1.026667-8.398973-3.36c-3.266267-3.266667-3.732877-7.186667-3.732877-12.04s.46661-8.866667 3.732877-12.04c2.239726-2.24 5.226028-3.36 8.398973-3.36s6.252568 1.213333 8.492294 3.453333c.746576.84 1.399829 1.68 1.866439 2.706667.839897 1.773333-.46661 3.733333-2.42637 3.733333-1.119863 0-2.053082-.653333-2.519692-1.68-.186644-.56-.559932-1.026666-.933219-1.493333-.933219-1.213333-2.613014-1.866667-4.479452-1.866667-1.679795 0-3.359589.746667-4.572774 1.96-2.053082 2.146667-2.053082 5.786667-2.053082 8.586667 0 2.706667 0 6.44 2.053082 8.586667 1.213185 1.213333 2.892979 1.96 4.572774 1.96 1.866438 0 3.546233-.653334 4.479452-1.866667.373287-.466667.746575-1.026667.933219-1.586667.373288-1.026666 1.399829-1.68 2.519692-1.68 1.95976 0 3.266267 1.96 2.42637 3.733334-.46661 1.026666-1.119863 1.96-1.866439 2.706666zm29.023117.186667c-2.239726 2.24-5.412672 3.36-8.585617 3.36s-6.252568-1.12-8.585616-3.36c-3.266267-3.266667-3.732877-7.186667-3.732877-12.04s.559932-8.866667 3.732877-12.04c2.239726-2.24 5.412671-3.36 8.585616-3.36s6.252569 1.12 8.585617 3.36c3.266267 3.266667 3.732876 7.186667 3.732876 12.04.093322 4.853333-.466609 8.866667-3.732876 12.04zm-3.826199-20.533333c-1.213185-1.213334-2.986301-1.96-4.666096-1.96-1.679794 0-3.546233.746666-4.666096 1.96-2.053082 2.146666-2.146404 5.786666-2.146404 8.586666 0 2.706667.093322 6.346667 2.146404 8.493334 1.213185 1.213333 2.986302 1.96 4.666096 1.96 1.679795 0 3.546233-.746667 4.666096-1.96 2.053082-2.146667 2.146404-5.786667 2.146404-8.493334 0-2.8-.093322-6.533333-2.146404-8.586666zm39.008562 20.72v-18.573334l-6.999144 18.946667c-.373288 1.12-1.493151 1.866667-2.706336 1.866667s-2.239726-.746667-2.706335-1.866667l-6.999144-19.226667v18.853334c0 1.493333-1.213185 2.613333-2.613014 2.613333-1.493151 0-2.613014-1.213333-2.613014-2.613333v-23.053334c0-2.24 1.866439-4.106666 4.106165-4.106666h.373287c1.679795 0 3.266268 1.026666 3.826199 2.706666l6.8125 18.48 6.905822-18.48c.559931-1.586666 2.146404-2.706666 3.826199-2.706666 2.239726 0 4.106164 1.866666 4.106164 4.106666v23.053334c0 1.493333-1.213185 2.613333-2.613014 2.613333-1.586472 0-2.706335-1.12-2.706335-2.613333zm-248.14298-54.226667h-62.992294c-5.879281 0-10.545377 4.666667-10.545377 10.453333v63c0 5.88 4.666096 10.546667 10.545377 10.546667h62.992294c5.785959 0 10.452055-4.666667 10.452055-10.453333v-63c0-5.88-4.666096-10.546667-10.452055-10.546667zm-20.344178 15.4c0-1.586667 1.213185-2.8 2.799658-2.8 1.586472 0 2.799657 1.213333 2.799657 2.8v37.426667c0 1.586666-1.213185 2.8-2.799657 2.8-1.586473 0-2.799658-1.213334-2.799658-2.8zm-13.998288-1.4c0-1.586667 1.213185-2.8 2.799658-2.8s2.799658 1.213333 2.799658 2.8v40.6c0 1.586667-1.213185 2.8-2.799658 2.8s-2.799658-1.213333-2.799658-2.8zm-13.998287 1.4c0-1.586667 1.213185-2.8 2.799657-2.8 1.586473 0 2.799658 1.213333 2.799658 2.8v37.426667c0 1.586666-1.213185 2.8-2.799658 2.8-1.586472 0-2.799657-1.213334-2.799657-2.8zm-13.998288 5.6c0-1.586667 1.213185-2.8 2.799658-2.8 1.586472 0 2.799657 1.213333 2.799657 2.8v25.2c0 1.586667-1.213185 2.8-2.799657 2.8-1.586473 0-2.799658-1.213333-2.799658-2.8zm60.659247 42.746667c-.46661.373333-10.825343 9.053333-29.863014 9.053333s-29.396404-8.68-29.863014-9.053333c-1.213185-1.026667-1.306507-2.8-.279965-3.92 1.026541-1.213334 2.799657-1.306667 3.91952-.28.186644 0 9.425514 7.653333 26.223459 7.653333 16.984589 0 26.130137-7.653333 26.130137-7.746667 1.213185-1.026666 2.986301-.84 3.919521.28 1.119863 1.213334.933219 2.986667-.186644 4.013334zm.933219-17.546667c0 1.586667-1.213185 2.8-2.799658 2.8-1.586472 0-2.799657-1.213333-2.799657-2.8v-25.2c0-1.586667 1.213185-2.8 2.799657-2.8 1.586473 0 2.799658 1.213333 2.799658 2.8z" fill="#fff"/></g></svg>

<?xml version="1.0" encoding="UTF-8"?>
<svg width="640px" height="360px" viewBox="0 0 640 360" version="1.1" xmlns="http://www.w3.org/2000/svg" xmlns:xlink="http://www.w3.org/1999/xlink">
    <!-- Generator: Sketch 50.2 (55047) - http://www.bohemiancoding.com/sketch -->
    <title>intercom/picture</title>
    <desc>Created with Sketch.</desc>
    <defs></defs>
    <g id="intercom/picture" stroke="none" stroke-width="1" fill="none" fill-rule="evenodd">
        <rect id="Rectangle" fill="#208DEC" x="0" y="0" width="640" height="360"></rect>
        <path d="M268.333048,192.133333 L268.333048,167.866667 C268.333048,166.373333 269.546233,165.16 271.039384,165.16 C272.532534,165.16 273.745719,166.373333 273.745719,167.866667 L273.745719,192.133333 C273.745719,193.626667 272.532534,194.84 271.039384,194.84 C269.639555,194.84 268.333048,193.626667 268.333048,192.133333 Z M299.315925,193.16 L287.557363,174.4 L287.557363,192.133333 C287.557363,193.626667 286.344178,194.84 284.851027,194.84 C283.357877,194.84 282.144692,193.626667 282.144692,192.133333 L282.144692,168.613333 C282.144692,166.653333 283.731164,164.973333 285.784247,164.973333 L285.97089,164.973333 C287.184075,164.973333 288.39726,165.626667 289.050514,166.653333 L300.715753,185.133333 L300.715753,167.68 C300.715753,166.186667 301.928938,164.973333 303.422089,164.973333 C304.91524,164.973333 306.128425,166.186667 306.128425,167.68 L306.128425,191.2 C306.128425,193.16 304.541952,194.84 302.48887,194.84 C301.182363,194.84 299.969178,194.28 299.315925,193.16 Z M324.979452,170.2 L324.979452,192.413333 C324.979452,193.813333 323.859589,194.933333 322.45976,194.933333 L322.086473,194.933333 C320.686644,194.933333 319.566781,193.813333 319.566781,192.413333 L319.566781,170.2 L313.314212,170.2 C311.914384,170.2 310.794521,169.08 310.794521,167.68 C310.794521,166.28 311.914384,165.16 313.314212,165.16 L331.325342,165.16 C332.725171,165.16 333.845034,166.28 333.845034,167.68 C333.845034,169.08 332.725171,170.2 331.325342,170.2 L324.979452,170.2 Z M338.137842,192.413333 L338.137842,167.493333 C338.137842,166.186667 339.257705,165.066667 340.564212,165.066667 L356.895548,165.066667 C358.202055,165.066667 359.321918,166.186667 359.321918,167.493333 C359.321918,168.8 358.202055,169.92 356.895548,169.92 L343.550514,169.92 L343.550514,176.826667 L355.02911,176.826667 C356.335616,176.826667 357.455479,177.946667 357.455479,179.253333 C357.455479,180.56 356.335616,181.68 355.02911,181.68 L343.550514,181.68 L343.550514,189.8 L356.895548,189.8 C358.202055,189.8 359.321918,190.92 359.321918,192.226667 C359.321918,193.533333 358.202055,194.653333 356.895548,194.653333 L340.564212,194.653333 C339.257705,194.84 338.137842,193.813333 338.137842,192.413333 L338.137842,192.413333 Z M382.185788,193.253333 L377.892979,183.64 L371.267123,183.64 L371.267123,192.226667 C371.267123,193.72 370.053938,194.933333 368.560788,194.933333 L368.467466,194.933333 C366.974315,194.933333 365.76113,193.72 365.76113,192.226667 L365.76113,167.866667 C365.76113,166.373333 366.974315,165.16 368.467466,165.16 L378.359589,165.16 C385.452055,165.16 388.718322,169.64 388.718322,174.4 C388.718322,178.413333 386.571918,181.493333 383.305651,182.706667 L387.038527,191.106667 C387.785103,192.88 386.571918,194.84 384.612158,194.84 C383.585616,194.84 382.559075,194.28 382.185788,193.253333 L382.185788,193.253333 Z M378.452911,169.826667 L371.360445,169.826667 L371.360445,178.693333 L378.546233,178.693333 C381.625856,178.693333 383.398973,177.106667 383.398973,174.306667 C383.305651,171.973333 381.532534,169.826667 378.452911,169.826667 L378.452911,169.826667 Z M414.475171,191.853333 C412.235445,194.093333 409.155822,195.4 405.982877,195.4 C402.809932,195.4 399.82363,194.373333 397.583904,192.04 C394.317637,188.773333 393.851027,184.853333 393.851027,180 C393.851027,175.146667 394.317637,171.133333 397.583904,167.96 C399.82363,165.72 402.809932,164.6 405.982877,164.6 C409.155822,164.6 412.235445,165.813333 414.475171,168.053333 C415.221747,168.893333 415.875,169.733333 416.34161,170.76 C417.181507,172.533333 415.875,174.493333 413.91524,174.493333 C412.795377,174.493333 411.862158,173.84 411.395548,172.813333 C411.208904,172.253333 410.835616,171.786667 410.462329,171.32 C409.52911,170.106667 407.849315,169.453333 405.982877,169.453333 C404.303082,169.453333 402.623288,170.2 401.410103,171.413333 C399.357021,173.56 399.357021,177.2 399.357021,180 C399.357021,182.706667 399.357021,186.44 401.410103,188.586667 C402.623288,189.8 404.303082,190.546667 405.982877,190.546667 C407.849315,190.546667 409.52911,189.893333 410.462329,188.68 C410.835616,188.213333 411.208904,187.653333 411.395548,187.093333 C411.768836,186.066667 412.795377,185.413333 413.91524,185.413333 C415.875,185.413333 417.181507,187.373333 416.34161,189.146667 C415.875,190.173333 415.221747,191.106667 414.475171,191.853333 Z M443.498288,192.04 C441.258562,194.28 438.085616,195.4 434.912671,195.4 C431.739726,195.4 428.660103,194.28 426.327055,192.04 C423.060788,188.773333 422.594178,184.853333 422.594178,180 C422.594178,175.146667 423.15411,171.133333 426.327055,167.96 C428.566781,165.72 431.739726,164.6 434.912671,164.6 C438.085616,164.6 441.16524,165.72 443.498288,167.96 C446.764555,171.226667 447.231164,175.146667 447.231164,180 C447.324486,184.853333 446.764555,188.866667 443.498288,192.04 Z M439.672089,171.506667 C438.458904,170.293333 436.685788,169.546667 435.005993,169.546667 C433.326199,169.546667 431.45976,170.293333 430.339897,171.506667 C428.286815,173.653333 428.193493,177.293333 428.193493,180.093333 C428.193493,182.8 428.286815,186.44 430.339897,188.586667 C431.553082,189.8 433.326199,190.546667 435.005993,190.546667 C436.685788,190.546667 438.552226,189.8 439.672089,188.586667 C441.725171,186.44 441.818493,182.8 441.818493,180.093333 C441.818493,177.293333 441.725171,173.56 439.672089,171.506667 L439.672089,171.506667 Z M478.680651,192.226667 L478.680651,173.653333 L471.681507,192.6 C471.308219,193.72 470.188356,194.466667 468.975171,194.466667 C467.761986,194.466667 466.735445,193.72 466.268836,192.6 L459.269692,173.373333 L459.269692,192.226667 C459.269692,193.72 458.056507,194.84 456.656678,194.84 C455.163527,194.84 454.043664,193.626667 454.043664,192.226667 L454.043664,169.173333 C454.043664,166.933333 455.910103,165.066667 458.149829,165.066667 L458.523116,165.066667 C460.202911,165.066667 461.789384,166.093333 462.349315,167.773333 L469.161815,186.253333 L476.067637,167.773333 C476.627568,166.186667 478.214041,165.066667 479.893836,165.066667 C482.133562,165.066667 484,166.933333 484,169.173333 L484,192.226667 C484,193.72 482.786815,194.84 481.386986,194.84 C479.800514,194.84 478.680651,193.72 478.680651,192.226667 L478.680651,192.226667 Z M230.537671,138 L167.545377,138 C161.666096,138 157,142.666667 157,148.453333 L157,211.453333 C157,217.333333 161.666096,222 167.545377,222 L230.537671,222 C236.32363,222 240.989726,217.333333 240.989726,211.546667 L240.989726,148.546667 C240.989726,142.666667 236.32363,138 230.537671,138 Z M210.193493,153.4 C210.193493,151.813333 211.406678,150.6 212.993151,150.6 C214.579623,150.6 215.792808,151.813333 215.792808,153.4 L215.792808,190.826667 C215.792808,192.413333 214.579623,193.626667 212.993151,193.626667 C211.406678,193.626667 210.193493,192.413333 210.193493,190.826667 L210.193493,153.4 Z M196.195205,152 C196.195205,150.413333 197.40839,149.2 198.994863,149.2 C200.581336,149.2 201.794521,150.413333 201.794521,152 L201.794521,192.6 C201.794521,194.186667 200.581336,195.4 198.994863,195.4 C197.40839,195.4 196.195205,194.186667 196.195205,192.6 L196.195205,152 Z M182.196918,153.4 C182.196918,151.813333 183.410103,150.6 184.996575,150.6 C186.583048,150.6 187.796233,151.813333 187.796233,153.4 L187.796233,190.826667 C187.796233,192.413333 186.583048,193.626667 184.996575,193.626667 C183.410103,193.626667 182.196918,192.413333 182.196918,190.826667 L182.196918,153.4 Z M168.19863,159 C168.19863,157.413333 169.411815,156.2 170.998288,156.2 C172.58476,156.2 173.797945,157.413333 173.797945,159 L173.797945,184.2 C173.797945,185.786667 172.58476,187 170.998288,187 C169.411815,187 168.19863,185.786667 168.19863,184.2 L168.19863,159 Z M228.857877,201.746667 C228.391267,202.12 218.032534,210.8 198.994863,210.8 C179.957192,210.8 169.598459,202.12 169.131849,201.746667 C167.918664,200.72 167.825342,198.946667 168.851884,197.826667 C169.878425,196.613333 171.651541,196.52 172.771404,197.546667 C172.958048,197.546667 182.196918,205.2 198.994863,205.2 C215.979452,205.2 225.125,197.546667 225.125,197.453333 C226.338185,196.426667 228.111301,196.613333 229.044521,197.733333 C230.164384,198.946667 229.97774,200.72 228.857877,201.746667 Z M229.791096,184.2 C229.791096,185.786667 228.577911,187 226.991438,187 C225.404966,187 224.191781,185.786667 224.191781,184.2 L224.191781,159 C224.191781,157.413333 225.404966,156.2 226.991438,156.2 C228.577911,156.2 229.791096,157.413333 229.791096,159 L229.791096,184.2 Z" id="Shape" fill="#FFFFFF"></path>
    </g>
</svg>
